X:1
T:Title
%%score { ( 1 3 ) | ( 2 4 ) }
L:1/8
M:6/8
K:D
V:1 treble nm="Grand Piano"
V:3 treble 
V:2 bass 
V:4 bass 
V:1
 z3 [A,DF]2 [A,EG] | [DFA]3 [DA]3 | [CGA]3 [CGA][B,GB][Gc] | [Fd]2 [Fc] [GB]2 [Gd] | [FA]3 [DF]3 | %5
 [FA]2 [EG] [EG]2 [^DF] | [EG]3 z3 | [GB]2 [FA] [FA]2 [=F^G] | [FA]3 [A,DF]2 [A,EG] | %9
 [DFA]3 [DA]3 | [CGA]3 [CGA][B,GB][Gc] | [Fd]2 [Fc] [GB]2 [Gd] | [FA]3 [FB]3 | c2 c E2 c | %14
 B2 B E2 B | A2 ^G A2 G | A6 | [ce]3 [Bd]3 | [Ac]3 z3 | d2 d c2 B |[M:5/8] [FA]-[FA]- [FA]3 | %21
[M:1/8] F |[M:3/4] [FA]G G [EG]2 [^DF] | [EG]4 z2 | [GB]A A [FA]2 [=F^G] | [FA]3 [DF]3 | %26
 [ce]3 [Bd]3 | [Ac]4 z2 | d2 d c2 B | [FA]6 | z2 z [^GB]3 | cc c c2- [EFc] | [Fd]3 [Be]3 | [^Af]6 | %34
 eB B B2 ^A | B6 | [Ae]A A [FA]2 [=F^G] | [FA]6 | [Ec]3 [GB]3 | [FA]3 [EG]3 | %40
 [DF]2 [EG] [FA]2 [GB] | [FA]6 | eB B B2 ^A | B6 | [Ae]A A [FA]2 [=F^G] | [FA]6 | [Ec]3 [GB]3 | %47
 [FA]2 [Bg] [Af]2 [Ge] | [Fd]6- |[M:3/8] [Fd]3 |] %50
V:2
 z3 D,2 D, | D,3 F,3 | E,3 A,,A,,[A,,A,] | [D,A,]2 [D,A,] [D,D]2 [D,B,] | [D,D]3 [D,A,]3 | %5
 [A,,A,]3 [A,,A,]3 | [A,,A,]2 C, E,2 A, | [D,D]2 [D,D] [D,D]2 [D,D] | [D,D]3 D,2 D, | D,3 F,3 | %10
 E,3 A,,A,,[A,,A,] | [D,A,]2 [D,A,] [D,D]2 [D,B,] | [D,D]3 [D,A,]3 | %13
 [E,A,E]2 [E,A,E] [E,A,C]2 [E,A,E] | [E,^G,D]2 [E,G,D] [E,G,D]2 [E,G,D] | [A,C]2 ^G, A,2 G, | A,6 | %17
 [A,,A,]3 [B,,A,]3 | .[C,A,]3 [G,A,E]2 [G,A,E] | D2[K:treble] D G2 G |[M:5/8][K:bass] D,2 D, D,2 | %21
[M:1/8] [D,A,D] |[M:3/4] z E E [A,,A,]2 [A,,A,] | [A,,A,]2 C, E,2 A, | %24
 z[K:treble] F F[K:bass] [D,D]2 [D,D] | [D,D]2 F, A,2 D, | [A,,A,]3 [B,,A,]3 | %27
 C,2 z [G,A,E]2 [G,A,E] | D2[K:treble] D G2 G | D,2 D, D,2 D, | z[K:treble] G G[K:bass] E,2 E, | %31
 AA A[K:bass] F,2 ^A, | B,2 B, .[G,D]3 | [F,C]2 F, .F,3 | GG G [G,DG]2 [G,CG] | G2- [G,G-] [G,G]3 | %36
 [F,D]3 [D,D]2 [D,D] | [D,D]2 D, D,2 [D,A,] | [A,,A,]2 [A,,A,] [A,,A,]2 [A,,A,] | %39
 [A,,A,]2 [A,,A,] [A,,A,]2 [A,,A,] | [D,A,]3 [D,D]3 | [D,D]2 D, .D,3 | GG G [G,DG]2 [G,CG] | %43
 G2- [G,G-] [G,G]3 | [F,D]3 [D,D]2 [D,D] | [D,D]2 D, D,2 [D,A,] | %46
 [A,,A,]2 [A,,A,] [A,,A,]2 [A,,A,] | [A,,A,]3 [A,,A,]3 | [D,A,]2 B, A,2 F, |[M:3/8] D,3 |] %50
V:3
 x6 | x6 | x6 | x6 | x6 | x6 | z2 A, .[A,CE]3 | x6 | x6 | x6 | x6 | x6 | x6 | x6 | x6 | x6 | x6 | %17
 x6 | z2 E, B2 c | x6 |[M:5/8] D2 D D2 |[M:1/8] x |[M:3/4] x6 | z2 A, .[A,CE]3 | x6 | z2 .D2 z A, | %26
 x6 | z2 E, B2 c | x6 | D2 D D2 [DFA] | [GB]B B D2 E | z2 z .[E^A]3 | D2 .D2 z [G,B,] | z2 C .C3 | %34
 x6 | z2 D .D3 | x6 | z2 D D2 [Fd] | x6 | x6 | x6 | z2 D .D3 | x6 | z2 D .D3 | x6 | z2 D D2 [Fd] | %46
 x6 | x6 | z2 z2 z A, |[M:3/8] A,3 |] %50
V:4
 x6 | x6 | x6 | x6 | x6 | x6 | x6 | x6 | x6 | x6 | x6 | x6 | x6 | x6 | x6 | x6 | x6 | x6 | x6 | %19
 [F,A,]3[K:treble] [G,B,]3 |[M:5/8][K:bass] x5 |[M:1/8] x |[M:3/4] [A,,A,]4 z2 | x6 | %24
 [D,D]4[K:treble][K:bass] z2 | x6 | x6 | A,4 z2 | [F,A,]3[K:treble] [G,B,]3 | x6 | %30
 [G,D]4[K:treble][K:bass] z2 | [A,E]4[K:bass] z2 | x6 | x6 | [G,B,]4 z2 | [G,D]2 z2 z2 | x6 | x6 | %38
 x6 | x6 | x6 | x6 | [G,B,]4 z2 | [G,D]2 z2 z2 | x6 | x6 | x6 | x6 | x6 |[M:3/8] x3 |] %50

